static/img/pages/customers/logos/airbus.svg

<svg width="108" height="20" viewBox="0 0 108 20" fill="none" xmlns="http://www.w3.org/2000/svg"><path fill-rule="evenodd" clip-rule="evenodd" d="M49.412 6.783c0-3.623-2.376-6.376-7.274-6.376h-9.854v19.04h4.637V4.522h5.246c1.942 0 2.637 1.102 2.637 2.376 0 1.305-.725 2.377-2.666 2.377h-4.492l6.374 10.172h5.275s-4.347-6.84-4.318-6.84c2.695-.637 4.435-2.52 4.435-5.824zM24.517.407h4.638v19.04h-4.638V.407zM12.664 12.26H8.762l2.888-5.854h.058L18.2 19.447h5.332L13.823.407H9.71L0 19.447h5.217l1.573-3.188h7.817l-1.942-4-.001.001zm53.674-2.695c1.478-.812 2.26-2.116 2.26-4.029 0-3.072-2.289-5.13-6.143-5.13h-10.84v19.041h11.274c3.942 0 6.521-2.116 6.521-5.332 0-2.232-1.246-3.913-3.072-4.55zm-10.085-5.13h6.202c.927 0 1.651.725 1.651 1.681 0 .956-.724 1.68-1.68 1.68h-6.174v-3.36l.001-.001zm6.317 11.013h-6.318v-3.884h6.318c1.13 0 2 .812 2 1.913 0 1.13-.87 1.971-2 1.971zm21.475-4.405c0 2.89-1.333 4.492-3.97 4.492-2.608 0-3.942-1.602-3.942-4.492V.407h-4.752v10.288c0 5.883 3.1 9.158 8.694 9.158 5.593 0 8.723-3.275 8.723-9.158V.407h-4.753v10.636zm17.128-3.072c-4.402-1.072-5.362-1.174-5.362-2.435 0-.975 1.101-1.449 2.956-1.449 2.464 0 5.087.618 6.579 1.536l1.478-3.883C104.911.726 102.1 0 98.825 0c-4.898 0-7.651 2.436-7.651 5.71 0 3.524 2.057 4.955 6.782 5.97 3.678.811 4.462 1.317 4.462 2.347 0 1.12-1.014 1.623-3.013 1.623-2.899 0-5.522-.703-7.622-1.854l-1.42 4.057c2.289 1.217 5.709 2 9.157 2 4.811 0 7.68-2.232 7.68-5.97.001-3-1.94-4.927-6.027-5.912z" fill="#fff"/></svg>

<svg width="108" height="20" viewBox="0 0 108 20" fill="none" xmlns="http://www.w3.org/2000/svg">
<path fill-rule="evenodd" clip-rule="evenodd" d="M49.412 6.783C49.412 3.16 47.036 0.407 42.138 0.407H32.284V19.447H36.921V4.522H42.167C44.109 4.522 44.804 5.624 44.804 6.898C44.804 8.203 44.079 9.275 42.138 9.275H37.646L44.02 19.447H49.295C49.295 19.447 44.948 12.607 44.977 12.607C47.672 11.97 49.412 10.087 49.412 6.783ZM24.517 0.407H29.155V19.447H24.517V0.407ZM12.664 12.26H8.762L11.65 6.406H11.708L18.2 19.447H23.532L13.823 0.407H9.71L0 19.447H5.217L6.79 16.259H14.607L12.665 12.259L12.664 12.26ZM66.338 9.565C67.816 8.753 68.598 7.449 68.598 5.536C68.598 2.464 66.309 0.406 62.455 0.406H51.615V19.447H62.889C66.831 19.447 69.41 17.331 69.41 14.115C69.41 11.883 68.164 10.202 66.338 9.565ZM56.253 4.435H62.455C63.382 4.435 64.106 5.16 64.106 6.116C64.106 7.072 63.382 7.796 62.426 7.796H56.252V4.436L56.253 4.435ZM62.57 15.448H56.252V11.564H62.57C63.7 11.564 64.57 12.376 64.57 13.477C64.57 14.607 63.7 15.448 62.57 15.448ZM84.045 11.043C84.045 13.933 82.712 15.535 80.075 15.535C77.467 15.535 76.133 13.933 76.133 11.043V0.407H71.381V10.695C71.381 16.578 74.481 19.853 80.075 19.853C85.668 19.853 88.798 16.578 88.798 10.695V0.407H84.045V11.043ZM101.173 7.971C96.771 6.899 95.811 6.797 95.811 5.536C95.811 4.561 96.912 4.087 98.767 4.087C101.231 4.087 103.854 4.705 105.346 5.623L106.824 1.74C104.911 0.726 102.1 0 98.825 0C93.927 0 91.174 2.436 91.174 5.71C91.174 9.234 93.231 10.665 97.956 11.68C101.634 12.491 102.418 12.997 102.418 14.027C102.418 15.147 101.404 15.65 99.405 15.65C96.506 15.65 93.883 14.947 91.783 13.796L90.363 17.853C92.652 19.07 96.072 19.853 99.52 19.853C104.331 19.853 107.2 17.621 107.2 13.883C107.201 10.883 105.26 8.956 101.173 7.971Z" fill="white"/>
</svg>
